X:69
T:B069-  The clean contrary way
Q:1/4=120
L:1/4
M:4/4
K:Gm
G|GG^FD|BBcc|dBAG|G3:|d/2=e/2|\
fdec|dBAF|BBcc|d3G|GG^FD|BBcc|dBAG|G3|]

